!!!COM: Palestrina, Giovanni Perluigi da
!!!OPR: Missa Sacerdos et pontifex
!!!OMD: Benedictus
!!!OTL: Hosanna
**kern	**kern	**kern	**kern	**kern
*Ibass	*Itenor	*Itenor	*Icalto	*Icant
!Bassus	!Tenor 2	!Tenor 1	!Altus	!Cantus
*clefF4	*clefGv2	*clefGv2	*clefG2	*clefG2
*k[b-]	*k[b-]	*k[b-]	*k[b-]	*k[b-]
*G:dor	*G:dor	*G:dor	*G:dor	*G:dor
*M4/2	*M4/2	*M4/2	*M4/2	*M4/2
=38	=38	=38	=38	=38
1D	1f	1d	1a	1dd
2D	2d	2d	2a	2ff
2A	2e	2c#	2a	2ee
=39	=39	=39	=39	=39
1.D	2.f	2.d	2.a	2dd
.	.	.	.	1ff
.	4e	4e	4g	.
.	2d	2f	4a	.
.	.	.	4b-	.
2C	2G	[2g	2cc	[2ee
=40	=40	=40	=40	=40
2G	2B-	2g]	2b-	4ee]
.	.	.	.	4dd
2D	2d	2f	2.a	1dd
1A	2A	1e	.	.
.	.	.	4g	.
.	[2a	.	2e	2cc#
=41	=41	=41	=41	=41
1D	4a]	2.d	2.f	[0dd
.	4g	.	.	.
.	4f	.	.	.
.	4e	4e	4g	.
2r	1d	2f	2a	.
2G	.	2g	2b-	.
=42	=42	=42	=42	=42
2G	2r	1.d	2b-	0dd]
2F#	2d	.	2a	.
2.G	2d	.	2.b-	.
.	[2g	2d	.	.
4A	.	.	4a	.
=43	=43	=43	=43	=43
2B-	4g]	2d	2g	1r
.	4f	.	.	.
1c	1e	2e	2.a	.
.	.	2c	.	2r
.	.	.	4g	.
2B-	2d	2d	[2g	2g
=44	=44	=44	=44	=44
1A	1c	2e	2g]	2a
.	.	2c	2f#	2cc
1G	2r	1d	2g	4b-
.	.	.	.	4cc
.	2d	.	2b-	4dd
.	.	.	.	4ee
=45	=45	=45	=45	=45
1A	2d	2r	1a	2ff
.	2c#	1a	.	2ee
1D	2.d	.	2f	2.ff
.	.	[2f	[2a	.
.	4e	.	.	4ee
=46	=46	=46	=46	=46
0r	2f	2f]	2a]	4dd
.	.	.	.	4cc
.	1g	2c	2cc	2.ee
.	.	2d	2b-	.
.	.	.	.	4dd
.	2f	2d	4a	[2dd
.	.	.	4g	.
=47	=47	=47	=47	=47
1r	1e	1A	1a	2dd]
.	.	.	.	2cc#
1D	1d	2A	1f	2.dd
.	.	2d	.	.
.	.	.	.	8cc
.	.	.	.	8b-
=48	=48	=48	=48	=48
2D	2r	2f	0r	0a
2C#	2A	2e	.	.
2.D	2A	2.f	.	.
.	2A	.	.	.
4E	.	4e	.	.
=49	=49	=49	=49	=49
2F	2A	4d	0r	0r
.	.	4c	.	.
1G	1B-	1e-	.	.
2F	2A	[2d	.	.
=50	=50	=50	=50	=50
1E-	1G	2d]	2r	2r
.	.	2c	2g	2g
1D	2r	1d	2b-	2g
.	2d	.	2a	2f#
=51	=51	=51	=51	=51
0r	2G	0r	2.b-	2.g
.	2.e-	.	.	.
.	.	.	4a	4a
.	.	.	4g	2b-
.	4d	.	4f	.
.	4c	.	[2a	[2cc
.	4B-	.	.	.
=52	=52	=52	=52	=52
1r	1c	0r	4a]	2cc]
.	.	.	4g	.
.	.	.	1g	2b-
1D	1d	.	.	1a
.	.	.	2f#	.
=53	=53	=53	=53	=53
2E-	2B-	2r	[0g	1g
2C	2c	2c	.	.
1G	2e-	2c	.	1r
.	2d	2B	.	.
=54	=54	=54	=54	=54
1.C	2.e-	1c	0g]	2r
.	.	.	.	2cc
.	4d	.	.	.
.	2c	[1G	.	2ee-
2G	2B	.	.	2dd
=55	=55	=55	=55	=55
0C	2.c	1G]	[0g	2.ee-
.	4d	.	.	4dd
.	1e-	1c	.	1cc
=56	=56	=56	=56	=56
0G	0d	0B	0g]	0dd
==	==	==	==	==
*-	*-	*-	*-	*-
!!!CDT: 1525/^1526/-1594/2/2
!!!OCY: Italia
!!!AGN: Mass (Paraphrase)
!!!AST: renaissance, vocal
!!!ASW: Antiphon
!!!PWK: Masses, Book 7
!!!RNB: Cadence finals: C,D
!!!YOR: Le Opere Complete, v. 23, p. 82
!!!YOO: Rome, Italy: Fratelli Scalera
!!!END: 1992//
!!!EED: John Miller
!!!YEC: Copyright 2000, John Miller
!!!YEN: United States of America
!!!YEM: Rights to all derivative electronic formats reserved.
!!!YEM: Refer to licensing agreement for further details.
!!!YEM: This file must be accompanied by the licensing agreement.
!!!YEM: A copy of the licensing agreement may be found at http://www.music-cog.ohio-state.edu/HumdrumDatabases/Palestrina/license.txt
!!!EMD: converted to Humdrum by Bret Aarden
